icon-svg/filebrowser.svg

<?xml version="1.0" encoding="UTF-8" standalone="no"?>
<svg width="24" height="24" viewBox="0 0 24 24" fill="#44739e" version="1.1" xmlns="http://www.w3.org/2000/svg" xmlns:svg="http://www.w3.org/2000/svg">
<path d="M 12,2 C 6.4643183,2 2,6.4643183 2,12 2,17.535681 6.4643183,22 12,22 17.535681,22 22,17.535681 22,12 22,6.4643183 17.535681,2 12,2 Z m 0,1 c 4.607115,0 9,4.3928846 9,9 0,4.607115 -4.392885,9 -9,9 C 7.3928846,21 3,16.607115 3,12 3,7.3928846 7.3928846,3 12,3 Z M 7.1347656,6.3164062 c -0.2044321,0 -0.328125,0.1236945 -0.328125,0.328125 V 17.355469 c 0,0.204432 0.1236929,0.328125 0.328125,0.328125 h 9.7304684 c 0.204433,0 0.328125,-0.123693 0.328125,-0.328125 V 7.2988281 L 15.638672,6.3164062 H 14.779297 V 9.8808594 H 10.380859 V 6.3164062 Z m 6.0917964,0.5722657 c -0.122657,0 -0.246093,0.082415 -0.246093,0.2050781 v 1.6347656 c 0,0.1226602 0.123436,0.2460938 0.246093,0.2460938 h 0.408204 c 0.122658,0 0.246093,-0.1234336 0.246093,-0.2460938 V 7.09375 c 0,-0.1226595 -0.123435,-0.2050781 -0.246093,-0.2050781 z M 8.3613281,7.1289062 c 0.4088607,0 0.6953125,0.2864522 0.6953125,0.6953126 0,0.3679734 -0.2864519,0.6542968 -0.6953125,0.6542968 -0.3679733,0 -0.6933594,-0.2863234 -0.6933593,-0.6542968 0,-0.4088604 0.3253861,-0.6953125 0.6933593,-0.6953126 z M 8.1152344,12.53125 H 15.84375 c 0.122659,0 0.203125,0.08228 0.203125,0.164062 v 4.021485 H 7.9121094 v -4.021485 c 0,-0.08177 0.080463,-0.164062 0.203125,-0.164062 z M 8.59375,13.541748 c -0.081769,0 -0.1230469,0.222391 -0.1230469,0.263267 0,0.08177 0.041277,0.328811 0.1230469,0.328811 h 6.746094 c 0.08177,0 0.123047,-0.247042 0.123047,-0.328811 0,-0.04089 -0.04128,-0.263267 -0.123047,-0.263267 z m 0,1.581298 c -0.081769,0 -0.1230469,0.194505 -0.1230469,0.276271 0,0.04089 0.041277,0.303432 0.1230469,0.303432 h 6.746094 c 0.08177,0 0.123047,-0.262562 0.123047,-0.303432 0,-0.08177 -0.04128,-0.276271 -0.123047,-0.276271 z"/>
</svg>

<?xml version="1.0" encoding="UTF-8" standalone="no"?>
<svg width="24" height="24" viewBox="0 0 24 24" fill="#44739e" version="1.1" xmlns="http://www.w3.org/2000/svg" xmlns:svg="http://www.w3.org/2000/svg">
<path d="M 12 2 C 6.4643183 2 2 6.4643183 2 12 C 2 17.535681 6.4643183 22 12 22 C 17.535681 22 22 17.535681 22 12 C 22 6.4643183 17.535681 2 12 2 z M 12 3.5 C 16.607115 3.5 20.5 7.3928846 20.5 12 C 20.5 16.607115 16.607115 20.5 12 20.5 C 7.3928846 20.5 3.5 16.607115 3.5 12 C 3.5 7.3928846 7.3928846 3.5 12 3.5 z M 7.1347656 6.3164062 C 6.9303335 6.3164062 6.8066406 6.4401007 6.8066406 6.6445312 L 6.8066406 17.355469 C 6.8066406 17.559901 6.9303335 17.683594 7.1347656 17.683594 L 16.865234 17.683594 C 17.069667 17.683594 17.193359 17.559901 17.193359 17.355469 L 17.193359 7.2988281 L 15.638672 6.3164062 L 14.779297 6.3164062 L 14.779297 9.8808594 L 10.380859 9.8808594 L 10.380859 6.3164062 L 7.1347656 6.3164062 z M 13.226562 6.8886719 C 13.103905 6.8886719 12.980469 6.971087 12.980469 7.09375 L 12.980469 8.7285156 C 12.980469 8.8511758 13.103905 8.9746094 13.226562 8.9746094 L 13.634766 8.9746094 C 13.757424 8.9746094 13.880859 8.8511758 13.880859 8.7285156 L 13.880859 7.09375 C 13.880859 6.9710905 13.757424 6.8886719 13.634766 6.8886719 L 13.226562 6.8886719 z M 8.3613281 7.1289062 C 8.7701888 7.1289062 9.0566406 7.4153584 9.0566406 7.8242188 C 9.0566406 8.1921922 8.7701887 8.4785156 8.3613281 8.4785156 C 7.9933548 8.4785156 7.6679687 8.1921922 7.6679688 7.8242188 C 7.6679688 7.4153584 7.9933549 7.1289063 8.3613281 7.1289062 z M 8.1152344 12.53125 L 15.84375 12.53125 C 15.966409 12.53125 16.046875 12.61353 16.046875 12.695312 L 16.046875 16.716797 L 7.9121094 16.716797 L 7.9121094 12.695312 C 7.9121094 12.613543 7.9925725 12.53125 8.1152344 12.53125 z M 8.59375 13.166016 C 8.5119811 13.166016 8.4707031 13.248186 8.4707031 13.289062 C 8.4707031 13.370832 8.5119802 13.462891 8.59375 13.462891 L 15.339844 13.462891 C 15.421614 13.462891 15.462891 13.37083 15.462891 13.289062 C 15.462891 13.248173 15.421611 13.166016 15.339844 13.166016 L 8.59375 13.166016 z M 8.59375 14.455078 C 8.5119811 14.455078 8.4707031 14.597922 8.4707031 14.679688 C 8.4707031 14.720577 8.5119802 14.761719 8.59375 14.761719 L 15.339844 14.761719 C 15.421614 14.761719 15.462891 14.720557 15.462891 14.679688 C 15.462891 14.597918 15.421611 14.455078 15.339844 14.455078 L 8.59375 14.455078 z M 8.59375 15.589844 C 8.5119811 15.589844 8.4707031 15.681904 8.4707031 15.763672 C 8.4707031 15.804562 8.5119802 15.884766 8.59375 15.884766 L 15.339844 15.884766 C 15.421614 15.884766 15.462891 15.804576 15.462891 15.763672 C 15.462888 15.681902 15.421611 15.589844 15.339844 15.589844 L 8.59375 15.589844 z " />
</svg>
